learning-site/svg (62).svg

<svg xmlns="http://www.w3.org/2000/svg" viewBox="0 0 100 100"><defs><filter x="-1.6%" y="-1.9%" width="103.1%" height="107.4%" filterUnits="objectBoundingBox" id="a"><feOffset dy="2" in="SourceAlpha" result="shadowOffsetOuter1"/><feColorMatrix values="0 0 0 0 0 0 0 0 0 0 0 0 0 0 0 0 0 0 0.0981657609 0" in="shadowOffsetOuter1" result="shadowMatrixOuter1"/><feMerge><feMergeNode in="shadowMatrixOuter1"/><feMergeNode in="SourceGraphic"/></feMerge></filter></defs><g fill="none" fill-rule="evenodd"><rect fill="#55A2FF" x="2" y="2" width="96" height="96" rx="48"/><g filter="url(#a)" transform="translate(18 22)"><path d="M4 54c-2.2 0-4-1.8-4-4V4c0-2.2 1.8-4 4-4h56c2.2 0 4 1.8 4 4v46c0 2.2-1.8 4-4 4H4" fill="#30404D"/><path d="M5 51c-1.1 0-2-.9-2-2V11c0-1.1.9-2 2-2h54c1.1 0 2 .9 2 2v38c0 1.1-.9 2-2 2H5" fill="#E1E4E1"/><path d="M4 4.5a1.5 1.5 0 1 1 3 0 1.5 1.5 0 0 1-3 0" fill="#DF5142"/><path d="M10 4.5a1.5 1.5 0 1 1 3 0 1.5 1.5 0 0 1-3 0" fill="#EFB252"/><path d="M16 4.5a1.5 1.5 0 1 1 3 0 1.5 1.5 0 0 1-3 0" fill="#7CB65A"/><path d="M59.5 6h-34a1.5 1.5 0 0 1 0-3h34a1.5 1.5 0 0 1 0 3" fill="#697D85"/><path d="M32 34.001a4.001 4.001 0 0 1-4-4 4 4 0 1 1 4 4zm9.046-6.003h-1.309a7.952 7.952 0 0 0-.851-2.056l.924-.924c.761-.762.748-2.018-.033-2.797-.779-.78-2.034-.793-2.795-.033l-.925.926A7.924 7.924 0 0 0 34 22.263v-1.309C34 19.878 33.102 19 31.999 19 30.897 19 30 19.878 30 20.954v1.308a7.98 7.98 0 0 0-2.058.851l-.923-.924c-.761-.76-2.017-.747-2.797.034-.779.779-.792 2.035-.032 2.795l.924.923a7.89 7.89 0 0 0-.851 2.057h-1.312c-1.075 0-1.951.898-1.951 2 0 1.104.876 2 1.951 2h1.31c.188.732.476 1.424.851 2.06l-.925.925c-.76.761-.745 2.015.034 2.794.78.78 2.034.795 2.795.036l.925-.927a7.94 7.94 0 0 0 2.059.852v1.311c0 1.075.897 1.951 1.999 1.951C33.102 41 34 40.124 34 39.049v-1.312a7.916 7.916 0 0 0 2.058-.851l.927.927c.76.76 2.014.746 2.793-.034.781-.78.796-2.034.035-2.795l-.926-.925a7.918 7.918 0 0 0 .852-2.061h1.307c1.076 0 1.954-.896 1.954-2 0-1.102-.878-2-1.954-2z" fill="#30404D"/><path d="M32 28a2 2 0 1 0-.001 4.001A2 2 0 0 0 32 28" fill="#30404D"/></g><rect x="2" y="2" width="96" height="96" rx="48" stroke="#0078D4" stroke-width="4"/></g></svg>

<svg xmlns="http://www.w3.org/2000/svg" xmlns:xlink="http://www.w3.org/1999/xlink" viewBox="0 0 100 100" version="1.1"><!-- Generator: Sketch 51.3 (57544) - http://www.bohemiancoding.com/sketch --><title>site-reliability-engineering-sre-101</title><desc>Created with Sketch.</desc><defs><filter x="-1.6%" y="-1.9%" width="103.1%" height="107.4%" filterUnits="objectBoundingBox" id="filter-1"><feOffset dx="0" dy="2" in="SourceAlpha" result="shadowOffsetOuter1"></feOffset><feColorMatrix values="0 0 0 0 0   0 0 0 0 0   0 0 0 0 0  0 0 0 0.0981657609 0" type="matrix" in="shadowOffsetOuter1" result="shadowMatrixOuter1"></feColorMatrix><feMerge><feMergeNode in="shadowMatrixOuter1"></feMergeNode><feMergeNode in="SourceGraphic"></feMergeNode></feMerge></filter></defs><g id="Badges-FINAL" stroke="none" stroke-width="1" fill="none" fill-rule="evenodd"><g id="N/A-2" transform="translate(-577.000000, -1017.000000)"><g id="site-reliability-engineering-sre-101" transform="translate(577.000000, 1017.000000)"><rect id="BG" fill="#55A2FF" x="2" y="2" width="96" height="96" rx="48"></rect><g id="Window" filter="url(#filter-1)" transform="translate(18.000000, 22.000000)"><path d="M4,54 C1.8,54 0,52.2 0,50 L0,4 C0,1.8 1.8,0 4,0 L60,0 C62.2,0 64,1.8 64,4 L64,50 C64,52.2 62.2,54 60,54 L4,54" id="Fill-1485" fill="#30404D"></path><path d="M5,51 C3.9,51 3,50.1 3,49 L3,11 C3,9.9 3.9,9 5,9 L59,9 C60.1,9 61,9.9 61,11 L61,49 C61,50.1 60.1,51 59,51 L5,51" id="Fill-1486" fill="#E1E4E1"></path><path d="M4,4.5 C4,3.671 4.672,3 5.5,3 C6.329,3 7,3.671 7,4.5 C7,5.328 6.329,6 5.5,6 C4.672,6 4,5.328 4,4.5" id="Fill-1487" fill="#DF5142"></path><path d="M10,4.5 C10,3.671 10.672,3 11.5,3 C12.329,3 13,3.671 13,4.5 C13,5.328 12.329,6 11.5,6 C10.672,6 10,5.328 10,4.5" id="Fill-1488" fill="#EFB252"></path><path d="M16,4.5 C16,3.671 16.672,3 17.5,3 C18.329,3 19,3.671 19,4.5 C19,5.328 18.329,6 17.5,6 C16.672,6 16,5.328 16,4.5" id="Fill-1489" fill="#7CB65A"></path><path d="M59.5,6 L25.5,6 C24.672,6 24,5.328 24,4.5 C24,3.672 24.672,3 25.5,3 L59.5,3 C60.328,3 61,3.672 61,4.5 C61,5.328 60.328,6 59.5,6" id="Fill-1490" fill="#697D85"></path><path d="M32,34.001 C29.791,34.001 28.001,32.209 28,30.001 C28.001,27.793 29.791,26.002 32,26.001 C34.209,26 36,27.793 36,30 C35.999,32.208 34.209,34 32,34.001 Z M41.046,27.998 L39.737,27.998 C39.548,27.267 39.261,26.577 38.886,25.942 L39.81,25.018 C40.571,24.256 40.558,23 39.777,22.221 C38.998,21.441 37.743,21.428 36.982,22.188 L36.057,23.114 C35.422,22.739 34.731,22.451 34,22.263 L34,20.954 C34,19.878 33.102,19 31.999,19 C30.897,19 30,19.878 30,20.954 L30,22.262 C29.269,22.451 28.578,22.738 27.942,23.113 L27.019,22.189 C26.258,21.429 25.002,21.442 24.222,22.223 C23.443,23.002 23.43,24.258 24.19,25.018 L25.114,25.941 C24.739,26.576 24.45,27.267 24.263,27.998 L22.951,27.998 C21.876,27.998 21,28.896 21,29.998 C21,31.102 21.876,31.998 22.951,31.998 L24.261,31.998 C24.449,32.73 24.737,33.422 25.112,34.058 L24.187,34.983 C23.427,35.744 23.442,36.998 24.221,37.777 C25.001,38.557 26.255,38.572 27.016,37.813 L27.941,36.886 C28.577,37.262 29.268,37.549 30,37.738 L30,39.049 C30,40.124 30.897,41 31.999,41 C33.102,41 34,40.124 34,39.049 L34,37.737 C34.732,37.549 35.423,37.261 36.058,36.886 L36.985,37.813 C37.745,38.573 38.999,38.559 39.778,37.779 C40.559,36.999 40.574,35.745 39.813,34.984 L38.887,34.059 C39.263,33.422 39.551,32.731 39.739,31.998 L41.046,31.998 C42.122,31.998 43,31.102 43,29.998 C43,28.896 42.122,27.998 41.046,27.998 Z" id="Fill-1491" fill="#30404D"></path><path d="M32,28 C30.894,28 30,28.895 30,30 C30,31.104 30.894,32 32,32 C33.105,32 34,31.104 34,30 C34,28.895 33.105,28 32,28" id="Fill-1492" fill="#30404D"></path></g><g id="Azure-Border" stroke="#0078D4" stroke-width="4"><rect x="2" y="2" width="96" height="96" rx="48"></rect></g></g></g></g></svg>
